lock-plus-outline.svg

<svg fill="currentColor" viewBox="0 0 24 24"><path d="M6 20V10h12v3.09c.33-.05.66-.09 1-.09s.67.04 1 .09V10a2 2 0 0 0-2-2h-1V6c0-2.76-2.24-5-5-5S7 3.24 7 6v2H6c-1.11 0-2 .89-2 2v10a2 2 0 0 0 2 2h7.81c-.35-.61-.59-1.28-.72-2zM9 6c0-1.66 1.34-3 3-3s3 1.34 3 3v2H9zm5 9c0 1.11-.89 2-2 2a2 2 0 0 1-2-2c0-1.11.89-2 2-2a2 2 0 0 1 2 2m9 3v2h-3v3h-2v-3h-3v-2h3v-3h2v3z"/></svg>

<svg  viewBox="0 0 24 24" fill="currentColor"><path  d="M6 20V10H18V13.09C18.33 13.04 18.66 13 19 13C19.34 13 19.67 13.04 20 13.09V10C20 8.9 19.11 8 18 8H17V6C17 3.24 14.76 1 12 1S7 3.24 7 6V8H6C4.89 8 4 8.89 4 10V20C4 21.1 4.89 22 6 22H13.81C13.46 21.39 13.22 20.72 13.09 20H6M9 6C9 4.34 10.34 3 12 3S15 4.34 15 6V8H9V6M14 15C14 16.11 13.11 17 12 17C10.89 17 10 16.1 10 15C10 13.89 10.89 13 12 13C13.11 13 14 13.9 14 15M23 18V20H20V23H18V20H15V18H18V15H20V18H23Z"/></svg>
